Newaita/actions/24/format-indent-less.svg

<svg height="24" viewBox="0 0 24 24" width="24" xmlns="http://www.w3.org/2000/svg"><g fill="#424242"><path d="m21.335938 5.148438h-18.855469c-.273438 0-.496094-.222657-.496094-.496094v-.992188c0-.273437.222656-.496094.496094-.496094h18.855469c.273437 0 .496093.222657.496093.496094v.992188c0 .273437-.222656.496094-.496093.496094zm0 0"/><path d="m14.386719 21.523438h-11.90625c-.273438 0-.496094-.222657-.496094-.496094v-.996094c0-.273438.222656-.496094.496094-.496094h11.90625c.273437 0 .496093.222656.496093.496094v.996094c0 .273437-.222656.496094-.496093.496094zm0 0"/><path d="m14.386719 16.0625h-11.90625c-.273438 0-.496094-.21875-.496094-.496094v-.992187c0-.273438.222656-.496094.496094-.496094h11.90625c.273437 0 .496093.222656.496093.496094v.992187c0 .277344-.222656.496094-.496093.496094zm0 0"/><path d="m14.386719 10.605469h-11.90625c-.273438 0-.496094-.222657-.496094-.496094v-.992187c0-.273438.222656-.496094.496094-.496094h11.90625c.273437 0 .496093.222656.496093.496094v.992187c0 .273437-.222656.496094-.496093.496094zm0 0"/><path d="m21.832031 18.542969v-6.945313l-4.964843 3.472656zm0 0"/></g></svg>

<svg xmlns="http://www.w3.org/2000/svg" xmlns:xlink="http://www.w3.org/1999/xlink" width="24px" height="24px" viewBox="0 0 24 24" version="1.1">
<g id="surface1">
     <defs>
  <style id="current-color-scheme" type="text/css">
   .ColorScheme-Text { color:#424242; } .ColorScheme-Highlight { color:#eeeeee; }
  </style>
 </defs>
<path style="fill:currentColor" class="ColorScheme-Text" d="M 21.335938 5.148438 L 2.480469 5.148438 C 2.207031 5.148438 1.984375 4.925781 1.984375 4.652344 L 1.984375 3.660156 C 1.984375 3.386719 2.207031 3.164062 2.480469 3.164062 L 21.335938 3.164062 C 21.609375 3.164062 21.832031 3.386719 21.832031 3.660156 L 21.832031 4.652344 C 21.832031 4.925781 21.609375 5.148438 21.335938 5.148438 Z M 21.335938 5.148438 "/>
     <defs>
  <style id="current-color-scheme" type="text/css">
   .ColorScheme-Text { color:#424242; } .ColorScheme-Highlight { color:#eeeeee; }
  </style>
 </defs>
<path style="fill:currentColor" class="ColorScheme-Text" d="M 14.386719 21.523438 L 2.480469 21.523438 C 2.207031 21.523438 1.984375 21.300781 1.984375 21.027344 L 1.984375 20.03125 C 1.984375 19.757812 2.207031 19.535156 2.480469 19.535156 L 14.386719 19.535156 C 14.660156 19.535156 14.882812 19.757812 14.882812 20.03125 L 14.882812 21.027344 C 14.882812 21.300781 14.660156 21.523438 14.386719 21.523438 Z M 14.386719 21.523438 "/>
     <defs>
  <style id="current-color-scheme" type="text/css">
   .ColorScheme-Text { color:#424242; } .ColorScheme-Highlight { color:#eeeeee; }
  </style>
 </defs>
<path style="fill:currentColor" class="ColorScheme-Text" d="M 14.386719 16.0625 L 2.480469 16.0625 C 2.207031 16.0625 1.984375 15.84375 1.984375 15.566406 L 1.984375 14.574219 C 1.984375 14.300781 2.207031 14.078125 2.480469 14.078125 L 14.386719 14.078125 C 14.660156 14.078125 14.882812 14.300781 14.882812 14.574219 L 14.882812 15.566406 C 14.882812 15.84375 14.660156 16.0625 14.386719 16.0625 Z M 14.386719 16.0625 "/>
     <defs>
  <style id="current-color-scheme" type="text/css">
   .ColorScheme-Text { color:#424242; } .ColorScheme-Highlight { color:#eeeeee; }
  </style>
 </defs>
<path style="fill:currentColor" class="ColorScheme-Text" d="M 14.386719 10.605469 L 2.480469 10.605469 C 2.207031 10.605469 1.984375 10.382812 1.984375 10.109375 L 1.984375 9.117188 C 1.984375 8.84375 2.207031 8.621094 2.480469 8.621094 L 14.386719 8.621094 C 14.660156 8.621094 14.882812 8.84375 14.882812 9.117188 L 14.882812 10.109375 C 14.882812 10.382812 14.660156 10.605469 14.386719 10.605469 Z M 14.386719 10.605469 "/>
     <defs>
  <style id="current-color-scheme" type="text/css">
   .ColorScheme-Text { color:#424242; } .ColorScheme-Highlight { color:#eeeeee; }
  </style>
 </defs>
<path style="fill:currentColor" class="ColorScheme-Text" d="M 21.832031 18.542969 L 21.832031 11.597656 L 16.867188 15.070312 Z M 21.832031 18.542969 "/>
</g>
</svg>
